X:189
T: FUESELIER SIND LUSTGE BRUEDER
N: E1331
O: Europa, Mitteleuropa, Deutschland, Hessen, Oberhessen; Nassau
R: Staende -, Soldaten -, Kriegs - Lied
M: 6/8
L: 1/16
K: D
 | D4F2A4A2 | B2A2A2F4D2 |
E4B2A4BA | F6-F4z2 |
D4F2A4A2 | B2A2A2F4D2 |
E4B2A4BA | F6-F4z2 |
B4B2d2c2B2 | A4d2d4F2 |
E4B2A3BA2 | F4A2d6 |
B4B2d2c2B2 | A4d2d4F2 |
E4B2A3BA2 | F6-F4z2

@@@ Tune index: 4873
